plasma/desktoptheme/ROUNDED/icons/korgac.svg

<svg xmlns="http://www.w3.org/2000/svg" id="svg4153" width="32" height="32" version="1.1">
 <g id="22-22-korgac" transform="translate(32.000001,10.000001)">
  <rect id="rect4162" style="opacity:0.001" width="22" height="22" x="0" y="0"/>
  <path id="path830" style="opacity:1;fill:#232627" d="m 11,3 c -4.4319982,0 -8,3.5680018 -8,8 0,4.431998 3.5680018,8 8,8 4.431998,0 8,-3.568002 8,-8 0,-4.4319982 -3.568002,-8 -8,-8 z m 0,1 c 3.877999,0 7,3.1220013 7,7 0,3.877999 -3.122001,7 -7,7 C 7.1220013,18 4,14.877999 4,11 4,7.1220013 7.1220013,4 11,4 Z M 10.98437,4.9863281 A 1.0001,1.0001 0 0 0 10,6 v 5 a 1.0001,1.0001 0 0 0 1,1 h 4 a 1.0001,1.0001 0 1 0 0,-2 H 12 V 6 A 1.0001,1.0001 0 0 0 10.984375,4.9863281 Z"/>
 </g>
 <g id="korgac">
  <rect id="rect819" style="opacity:0.001" width="32" height="32" x="0" y="0"/>
  <path id="path833" style="opacity:1;fill:#232627" d="M 16 4 C 9.3520032 4 4 9.3520029 4 16 C 4 22.647997 9.3520032 28 16 28 C 22.647998 28 28 22.647997 28 16 C 28 9.3520029 22.647998 4 16 4 z M 16 5 C 22.093998 5 27 9.9060024 27 16 C 27 22.093998 22.093998 27 16 27 C 9.9060029 27 5 22.093998 5 16 C 5 9.9060024 9.9060029 5 16 5 z M 15.984375 6.9863281 A 1.0001 1.0001 0 0 0 15 8 L 15 16 A 1.0001 1.0001 0 0 0 16 17 L 24 17 A 1.0001 1.0001 0 1 0 24 15 L 17 15 L 17 8 A 1.0001 1.0001 0 0 0 15.984375 6.9863281 z"/>
 </g>
</svg>

<svg xmlns="http://www.w3.org/2000/svg" id="svg4153" width="22" height="22" version="1.1">
 <g id="korgac">
  <path id="path830" style="opacity:1;fill:#232627" d="M 11 3 C 6.5680018 3 3 6.5680018 3 11 C 3 15.431998 6.5680018 19 11 19 C 15.431998 19 19 15.431998 19 11 C 19 6.5680018 15.431998 3 11 3 z M 11 4 C 14.877999 4 18 7.1220013 18 11 C 18 14.877999 14.877999 18 11 18 C 7.1220013 18 4 14.877999 4 11 C 4 7.1220013 7.1220013 4 11 4 z M 10.984375 4.9863281 A 1.0001 1.0001 0 0 0 10 6 L 10 11 A 1.0001 1.0001 0 0 0 11 12 L 15 12 A 1.0001 1.0001 0 1 0 15 10 L 12 10 L 12 6 A 1.0001 1.0001 0 0 0 10.984375 4.9863281 z"/>
  <rect id="rect4162" style="opacity:0.001" width="22" height="22" x="0" y="0"/>
 </g>
</svg>
